frontend/public/favicon.svg

<!DOCTYPE svg PUBLIC "-//W3C//DTD SVG 1.1//EN" "http://www.w3.org/Graphics/SVG/1.1/DTD/svg11.dtd">
<!-- Uploaded to: SVG Repo, www.svgrepo.com, Transformed by: SVG Repo Mixer Tools -->
<svg width="256px" height="256px" viewBox="-1.2 -1.2 26.40 26.40" fill="none" xmlns="http://www.w3.org/2000/svg" stroke="#fb2828" transform="rotate(0)">
<g id="SVGRepo_bgCarrier" stroke-width="0" transform="translate(0,0), scale(1)">
<rect x="-1.2" y="-1.2" width="26.40" height="26.40" rx="4.224" fill="#ffffff" strokewidth="0"/>
</g>
<g id="SVGRepo_tracerCarrier" stroke-linecap="round" stroke-linejoin="round" stroke="#CCCCCC" stroke-width="1.152"/>
<g id="SVGRepo_iconCarrier"> <path d="M15.5 9L15.6716 9.17157C17.0049 10.5049 17.6716 11.1716 17.6716 12C17.6716 12.8284 17.0049 13.4951 15.6716 14.8284L15.5 15" stroke="#6b7cff" stroke-width="1.8" stroke-linecap="round"/> <path d="M13.2942 7.17041L12.0001 12L10.706 16.8297" stroke="#6b7cff" stroke-width="1.8" stroke-linecap="round"/> <path d="M8.49994 9L8.32837 9.17157C6.99504 10.5049 6.32837 11.1716 6.32837 12C6.32837 12.8284 6.99504 13.4951 8.32837 14.8284L8.49994 15" stroke="#6b7cff" stroke-width="1.8" stroke-linecap="round"/> <path d="M22 12C22 16.714 22 19.0711 20.5355 20.5355C19.0711 22 16.714 22 12 22C7.28595 22 4.92893 22 3.46447 20.5355C2 19.0711 2 16.714 2 12C2 7.28595 2 4.92893 3.46447 3.46447C4.92893 2 7.28595 2 12 2C16.714 2 19.0711 2 20.5355 3.46447C21.5093 4.43821 21.8356 5.80655 21.9449 8" stroke="#6b7cff" stroke-width="1.8" stroke-linecap="round"/> </g>
</svg>

<svg width="256" height="256" viewBox="-1.2 -1.2 26.4 26.4" fill="none" xmlns="http://www.w3.org/2000/svg" stroke="#fb2828"><rect x="-1.2" y="-1.2" width="26.4" height="26.4" rx="4.224" fill="#fff" stroke="none" stroke-width="0"/><g stroke="#6b7cff" stroke-width="1.8" stroke-linecap="round"><path d="M15.5 9l.172.172c1.333 1.333 2 2 2 2.828 0 .828-.667 1.495-2 2.828L15.5 15M13.294 7.17L12 12l-1.294 4.83M8.5 9l-.172.172c-1.333 1.333-2 2-2 2.828 0 .828.667 1.495 2 2.828L8.5 15"/><path d="M22 12c0 4.714 0 7.071-1.465 8.535C19.072 22 16.714 22 12 22s-7.071 0-8.536-1.465C2 19.072 2 16.714 2 12s0-7.071 1.464-8.536C4.93 2 7.286 2 12 2c4.714 0 7.071 0 8.535 1.464.974.974 1.3 2.343 1.41 4.536"/></g></svg>
